www/assets/icons/highlight_alt.svg

<svg xmlns="http://www.w3.org/2000/svg" width="24" height="24" viewBox="0 0 24 24" fill='currentColor'><path d="M17 5h-2V3h2zm-2 16h2v-2.59L19.59 21 21 19.59 18.41 17H21v-2h-6zm4-12h2V7h-2zm0 4h2v-2h-2zm-8 8h2v-2h-2zM7 5h2V3H7zM3 17h2v-2H3zm2 4v-2H3c0 1.1.9 2 2 2M19 3v2h2c0-1.1-.9-2-2-2m-8 2h2V3h-2zM3 9h2V7H3zm4 12h2v-2H7zm-4-8h2v-2H3zm0-8h2V3c-1.1 0-2 .9-2 2"/></svg>

<svg width="24" height="24" viewBox="0 0 24 24" xmlns="http://www.w3.org/2000/svg" fill='currentColor'><path d="M17 5H15V3H17V5ZM15 21H17V18.41L19.59 21L21 19.59L18.41 17H21V15H15V21ZM19 9H21V7H19V9ZM19 13H21V11H19V13ZM11 21H13V19H11V21ZM7 5H9V3H7V5ZM3 17H5V15H3V17ZM5 21V19H3C3 20.1 3.9 21 5 21ZM19 3V5H21C21 3.9 20.1 3 19 3ZM11 5H13V3H11V5ZM3 9H5V7H3V9ZM7 21H9V19H7V21ZM3 13H5V11H3V13ZM3 5H5V3C3.9 3 3 3.9 3 5Z"/></svg>
